!!!!SEGMENT: pl-kc--40102-iii-1-saf--001-013_zielenski-mikolaj--offertoria-totius-anni-in-festo-purificationis-b-mariae-virginis-diffusa-est-gratia.krn
!!!cenid: 16xx:1491
!!!COM: Zieleński, Mikołaj
!!!COM-rismid: pe30013481
!!!CDT:
!!!CNT: Polish
!!!GTL: Offertoria totius anni
!!!OTL: In festo Purificationis B. Mariae Virginis/Diffusa est gratia
!!!OMV: 013
!!!PDT: 1611
!!!AGN:
!!!SMS-siglum: PL-Kc
!!!SMS-shelfmark: 40102 III/1 Saf.
!!!SMS-shelfwork: 001-013 G
!!!SMS-variant:
!!!SMS-altvar:
!!!NIFC-rismid: 990069886
!!!URL-scan: https://cyfrowe.mnk.pl/dlibra/publication/24235/edition/23926/content?ref=desc
!!!ONB-nifc: UWAGA: str. 13-14. Uwaga: W xml metrum 2/1 do źródłowego C| i odpowiednio 3/1 do 3/2
!!!key:
**kern	**kern	**kern	**kern
*group1	*group1	*group1	*group1
*part4	*part3	*part2	*part1
*staff4	*staff3	*staff2	*staff1
*I""Organo	*I""Organo	*I""Organo	*I""Organo
*I''org	*I''org	*I''org	*I''org
*Iorgan	*Iorgan	*Iorgan	*Iorgan
*ICklav	*ICklav	*ICklav	*ICklav
*clefF5	*clefC3	*clefC4	*clefC1
*k[]	*k[]	*k[]	*k[]
*C:	*C:	*C:	*C:
*M2/1	*M2/1	*M2/1	*M2/1
*met(c|)	*met(c|)	*met(c|)	*met(c|)
=1	=1	=1	=1
!	!LO:TX:a:t=Sei Tromboni cum Cantori.	!LO:TX:a:t=Diffuſa eſt gratia	!LO:TX:a:t=In feſto Purificationis B. Mariae Virginis. A 7.
1r	1.G	0r	00r
1.C	.	.	.
.	2F/	.	.
=2-	=2-	=2-	=2-
.	1.E	1r	.
2BB/	.	.	.
1AA	.	[y1c	.
.	4D/	.	.
.	4C/	.	.
=3	=3	=3	=3
!	!	!LO:N:vis=xstem:cue	!
1GG	2E/	2c\]	1.g
.	2D/	2B\	.
2.AA/	2.C/	1A	.
.	.	.	2f/
4BB/	4D/	.	.
=4-	=4-	=4-	=4-
1C	4E/	2G/	1.e
.	4F/	.	.
.	1G	1c	.
[y1GG	.	.	.
.	2A/	4B\	4d/
.	.	4A/	4c/
=5	=5	=5	=5
!LO:N:vis=xstem:cue	!	!	!
2GG/]	2B/	2G/	1d
2FF/	2.d\	2A/	.
2EE/	.	2G/	1.g
.	4c/	.	.
4DD/	2.c/	4F/	.
4CC/	.	4E/	.
=6-	=6-	=6-	=6-
1DD	.	2F/	.
.	8B/	.	.
.	8A/	.	.
.	2B/	2D/	2f/
1CC	1c	[y1G	[y1cc
=7	=7	=7	=7
!	!	!LO:N:vis=xstem:cue	!LO:N:vis=xstem:cue
1GG	2r	2G/]	2cc\]
.	1d	2G/	2b\
1DD	.	2d\	1a
.	2c/	1d\	.
=8-	=8-	=8-	=8-
0GG	1B	.	2b\
.	.	2d\	4g/
.	.	.	4a\
.	[y1g	2G/	4b\
.	.	.	4cc\
.	.	2A/	[y2dd\
=9	=9	=9	=9
!	!LO:N:vis=xstem:cue	!	!LO:N:xstem:cue
0GG	2g\]	1.G	4dd\]
.	.	.	4cc\
.	2e\	.	2.cc\
.	2d\	.	.
.	.	.	8b\
.	.	.	8a\
.	2d\	2G/	2b\
=10-	=10-	=10-	=10-
*	*	*	*lig
2CC/	2.g\	1G	1cc
1C	.	.	.
.	4f\	.	.
.	2e\	2G/	1g
2BB/	2d\	[y2G/	.
*	*	*	*Xlig
=11	=11	=11	=11
!	!	!LO:N:xstem:cue	!
1AA	2c/	4G/]	2a\
.	.	8F#X/	.
.	.	8E/	.
.	2A/	2F#/	2a\
1GG	2.B/	2.G/	2d/
.	.	.	1g\
.	8A/	4F#/	.
.	8B/	.	.
=12-	=12-	=12-	=12-
2.C\	2c/	4E/	.
.	.	4D/	.
.	2G/	1E	1cc
4BB/	.	.	.
2AA/	2A/	.	.
2E\	2G/	2G/	2b\
=13	=13	=13	=13
2C#X\	2A/	2E/	1a
2D\	1d	2F#X/	.
2BB/	.	2G/	2.g/
2Cny\	2c/	2.G/	.
.	.	.	4a\
=14-	=14-	=14-	=14-
1.GG	1.B	.	4b\
.	.	4Fny/	4a\
.	.	4E/	4g/
.	.	4D/	4f/
.	.	2E/	2e/
2FF/	2A/	2F/	[y2d/
=15	=15	=15	=15
!	!	!	!LO:N:xstem:cue
2EE/	2G/	2G/	4d/]
.	.	.	4c/
2CC/	1g	2E/	2.c/
1DD	.	2F/	.
.	.	.	8B/
.	.	.	8A/
.	2f\	2D/	2B/
=16-	=16-	=16-	=16-
2.AA/	1.e	2E/	1.c
.	.	1A	.
4BB/	.	.	.
[y1C	.	.	.
.	2e\	2G/	2g/
=17	=17	=17	=17
!LO:N:vis=xstem:cue	!	!	!
2C\]	2A/	2F#X/	2a\
2BB/	2d\	2.G/	2b\
2.C\	2e\	.	2g/
.	.	4F#/	.
.	2.e\	4E/	2.cc\
4BB/	.	4D/	.
=18-	=18-	=18-	=18-
2.AA/	.	2E/	.
.	4d\	.	4b\
.	4c/	1c	2.a\
4GG/	4B/	.	.
2FF/	2A/	.	.
.	.	.	4g/
2GG/	2d\	2B\	[y2g/
=19	=19	=19	=19
!	!	!	!LO:N:xstem:cue
1DD	1.d	1A	4g/]
.	.	.	8f#X/
.	.	.	8e/
.	.	.	2f#/
2.GG/	.	1G	1g
.	1g\	.	.
4FF/	.	.	.
=20-	=20-	=20-	=20-
2EE/	.	0r	0r
2FF/	2.f\	.	.
1CC	.	.	.
.	4e\	.	.
.	4e\	.	.
.	8d\	.	.
.	8c\	.	.
*custos:GG	*custos:d	*custos:E	*custos:g
!!LO:PB:g=original
=21	=21	=21	=21
1GG	1d	0r	0r
2.CC/	2e\	.	.
.	2c/	.	.
4EE/	.	.	.
=22-	=22-	=22-	=22-
2FF/	2A/	1r	1r
2GG/	2B/	.	.
1CC	1c	2r	2r
.	.	4r	2g/
.	.	4E/	.
=23	=23	=23	=23
0r	0r	2F/	2a\
.	.	2G/	2b\
.	.	2.C/	2.cc\
.	.	[4c\	2g/
=24-	=24-	=24-	=24-
0r	0r	4c\]	.
.	.	4c\	4g/
.	.	2.A/	2.cc\
.	.	4A/	4cc\
.	.	2d\	4a\
.	.	.	[<4dd\
=25	=25	=25	=25
0r	0r	2B\	4dd\]
.	.	.	4.b\
.	.	4G/	.
.	.	.	8a\
.	.	4.c\	2g/
.	.	8B\	.
.	.	8A/	2cc\
.	.	8G/	.
.	.	4F/	.
.	.	4G/	4b\
=26-	=26-	=26-	=26-
1r	1r	1d	1a
2r	2r	1G	1b
2BB/	2d\	.	.
=27	=27	=27	=27
2C\	2e\	0r	0r
2D\	2f#X\	.	.
2GG/	2.g\	.	.
2EE/	.	.	.
.	4g\	.	.
=28-	=28-	=28-	=28-
2FF/	2f\	1r	1r
2GG/	4e\	.	.
.	4d\	.	.
2.CC/	2g\	2r	2r
.	2e\	2c\	2g/
4EE/	.	.	.
=29	=29	=29	=29
2FF/	2c/	2A/	2a\
2DD/	2d\	2d\	2b\
2.AA/	2.c/	2.A/	2cc\
.	.	.	4r
[4C\	[4e\	[4G/	2cc\
=30-	=30-	=30-	=30-
4C\]	4e\]	4G/]	.
4GG/	4e\	4G/	4b\
2AA/	2.c/	2c\	2.a\
2FF/	.	2F/	.
.	2f\	.	4a\
2DD/	.	2F/	2a\
.	4d\	.	.
=31	=31	=31	=31
2.GG/	1d	1D	2b\
.	.	.	1g
4FF/	.	.	.
2EE/	2e\	2G/	.
2FF/	2c/	2r	2f/
=32-	=32-	=32-	=32-
2CC/	1c	2G/	2e/
2CC/	.	1c	2.a\
[1DD	2r	.	.
.	.	.	4g/
.	2d\	2B-X\	[y2g/
=33	=33	=33	=33
!	!	!	!LO:N:xstem:cue
1DD]	2d\	2A/	4g/]
.	.	.	8g/
.	.	.	8f#X/
.	2A/	2A/	2f#/
1GG	1d	1B	1g
=34-	=34-	=34-	=34-
*M3/2	*M3/2	*M3/2	*M3/2
0.r	0.r	0c	0cc
.	.	1G	1b
=35-	=35-	=35-	=35-
0.r	0.r	1.A	1.a
.	.	2A/	2a\
.	.	1E	1g
=36	=36	=36	=36
0.r	0.r	0F	0f
.	.	1G	1d
=37-	=37-	=37-	=37-
1r	1r	0.C	0.g
1C	1e	.	.
1GG	1d	.	.
=38-	=38-	=38-	=38-
1.AA	1.c	00.r	00.r
2AA/	2c/	.	.
1EE	1e	.	.
=39-	=39-	=39-	=39-
0FF	0d	.	.
1GG	1d	.	.
=40	=40	=40	=40
1CC	1e	1r	1r
1C	1e	1G	1cc
1GG	1g	1G	1dd
=41-	=41-	=41-	=41-
1.DD	1.f	1.d	1.dd
2DD/	2f\	2d\	2dd\
1AA	1e	1A	1cc
=42-	=42-	=42-	=42-
0EE	0e	0e	0b
1EE	1e	1e	1b
=43-	=43-	=43-	=43-
1AA	1e	1A	1cc#X
1AA	1e	1A	1cc#
1DD	1f#X	1d	1dd
=44	=44	=44	=44
1.GG	1.g	1.d	1.b
2GG/	2g\	2d\	2b\
1CC	1e	1c	1cc
=45-	=45-	=45-	=45-
0FF	0f	0c	0a
1FF	1f	1c	1f
=46-	=46-	=46-	=46-
1CC	1e	1c	1g
1CC	1e	1c	1cc
1GG	1d	1G	1b
=47-	=47-	=47-	=47-
1.DD	1.d	1.d	1.a
2FF/	2c/	2A/	2a\
1CC	1c	1c	1g
=48	=48	=48	=48
0GG	0c	0G	0g
1GG	1B	1G	1g
=49-	=49-	=49-	=49-
*M2/1	*M2/1	*M2/1	*M2/1
*met(c|)	*met(c|)	*met(c|)	*met(c|)
!	!	!	!LO:TX:t=P:problem=zmiana metrum o takt za wcześnie
2.CC/	2.c/	1G	1g
4EE/	4G/	.	.
2FF/	2A/	1r	1r
2GG/	2B/	.	.
1CC	1c	2r	2r
.	.	4r	2g/
.	.	4E/	.
=50	=50	=50	=50
1r	1r	2F/	2a\
.	.	2G/	2b\
0r	0r	2.C/	2.cc\
.	.	2c\	2g/
=51	=51	=51	=51
.	.	.	.
.	.	4c\	4g/
.	.	[2A/	2.cc\
1r	1r	4A/]	.
.	.	4A/	4cc\
.	.	2d\	4a\
.	.	.	[<4dd\
*custos:BB	*custos:d	*custos:B	*custos:dd
!!LO:PB:g=original
=52	=52	=52	=52
!	!	!	!LO:TX:t=P:problem=koniec ligatury na górze
1r	1r	2B\	4dd\]
.	.	.	4.b\
.	.	4G/	.
.	.	.	8a\
.	.	4.c\	2g/
0r	0r	.	.
.	.	8B\	.
.	.	8A/	2cc\
.	.	8G/	.
.	.	4F/	.
.	.	4G/	4b\
=53-	=53-	=53-	=53-
.	.	1d	1a
2r	2r	1G	1b
2BB/	2d\	.	.
=54	=54	=54	=54
2C\	2e\	0r	0r
2D\	2f#X\	.	.
2GG/	2.g\	.	.
2EE/	.	.	.
.	4g\	.	.
=55-	=55-	=55-	=55-
2FF/	2fny\	1r	1r
2GG/	4e\	.	.
.	4d\	.	.
2.CC/	2g\	2r	2r
.	2e\	2c\	2g/
4EE/	.	.	.
=56	=56	=56	=56
2FF/	2c/	2A/	2a\
2EE/	2d\	2d\	2b\
2.AA/	2.c/	2.A/	2.cc\
2C\	2e\	2G/	2cc\
=57-	=57-	=57-	=57-
.	.	.	.
4GG/	4e\	4G/	4b\
2AA/	2.c/	2c\	2.a\
2FF/	.	2F/	.
.	2f\	.	4a\
2DD/	.	2F/	2a\
.	4d\	.	.
=58	=58	=58	=58
2.GG/	1d	1D	2b\
.	.	.	1g\
4FF/	.	.	.
2EE/	2e\	2G/	.
2FF/	2c/	2r	2f/
=59-	=59-	=59-	=59-
2CC/	1c	2G/	2e/
2CC/	.	1c\	1a\
[>1DD	2r	.	.
.	2d\	2B-X\	[y2g/
=60	=60	=60	=60
!	!	!	!LO:N:xstem:cue
1DD]	2d\	2A/	4g/]
.	.	.	8f#X/
.	.	.	8e/
.	2A/	2A/	2e/
1GG	1d	1B	1g
=61-	=61-	=61-	=61-
*M3/2	*M3/2	*M3/2	*M3/2
00.r	00.r	0c	0cc
.	.	1G	1b
=62-	=62-	=62-	=62-
.	.	1.A	1.a
.	.	2A/	2a\
.	.	1E	1g
=63	=63	=63	=63
0.r	0.r	0F	0f
.	.	1G	1d
=64-	=64-	=64-	=64-
1r	1r	0.C	0.g
1C	1e	.	.
1GG	1d	.	.
=65-	=65-	=65-	=65-
1.AA	1.c	00.r	00.r
2AA/	2c/	.	.
1EE	1e	.	.
=66	=66	=66	=66
0FF	0d	.	.
1GG	1d	.	.
=67	=67	=67	=67
1CC	1e	1r	1r
1C	1e	1G	1cc
1GG	1g	1G	1dd
=68-	=68-	=68-	=68-
1.DD	1.f	1.d	1.dd
2DD/	2f\	2d\	2dd\
1AA	1e	1A	1cc
=69-	=69-	=69-	=69-
0EE	0e	0e	0b
1EE	1e	1e	1b
=70-	=70-	=70-	=70-
1AA	1e	1A	1cc#X
1AA	1e	1A	1cc#
1EE	1f#X	1d	1dd
=71	=71	=71	=71
1.GG	1.g	1.d	1.b
2GG/	2g\	2d\	2b\
1CC	1e	1c	1cc
=72-	=72-	=72-	=72-
0FF	0f	0c	0a
1FF	1f	1c	1f
=73-	=73-	=73-	=73-
1CC	1e	1c	1g
1CC	1e	1c	1cc
1GG	1d	1G	1b
=74-	=74-	=74-	=74-
1.DD	1.d	1.d	1.a
2FF/	2c/	2A/	2a\
1CC	1c	1B	1g
=75	=75	=75	=75
*M2/1	*M2/1	*M2/1	*M2/1
*met(c|)	*met(c|)	*met(c|)	*met(c|)
1.GG	2d\	2B\	4b\
.	.	.	4g/
.	2e\	4A/	2.cc\
.	.	4G/	.
.	1d	2d\	.
.	.	.	8b\
.	.	.	8a\
2GG/	.	2G/	2b\
=76-	=76-	=76-	=76-
2CC/	2e\	2G/	2cc\
1C	1e	4C/	1cc
.	.	4D/	.
.	.	4E/	.
.	.	4F/	.
2GG/	2B/	2G/	2b\
=77	=77	=77	=77
1AA	1.c	1C	1a
2AA/	.	2.c\	2a\
2EE/	2c/	.	2g/
.	.	4B\	.
=78-	=78-	=78-	=78-
0FF	0c	2A/	4f/
.	.	.	4c/
.	.	1F	4f/
.	.	.	4g/
.	.	.	4a\
.	.	.	4f/
.	.	2F/	4a\
.	.	.	4b\
=79	=79	=79	=79
0FF	1.c	2.F/	2.cc\
.	.	4G/	4b\
.	.	2A/	2a\
.	2c/	2F/	2a\
=80-	=80-	=80-	=80-
0CCl	0cl	0Gl	0gl
==	==	==	==
*-	*-	*-	*-
!!!system-decoration: *
!!!RDF**kern: > = above
!!!RDF**kern: < = below
!!!RDF**kern: l = terminal long
!!!AIN: 4 organ
!!!ENC: Filip Voros
!!!END: 2021-12-11
!!!ENC: Marta Lawrence
!!!END: 2021-12-19
